airbyte/airbyte-config/init/src/main/resources/icons/chargify.svg

<svg width="208" height="420" viewBox="0 0 208 420" fill="none" xmlns="http://www.w3.org/2000/svg">
<path fill-rule="evenodd" clip-rule="evenodd" d="M190.009 204.321C194.489 204.331 198.788 202.556 201.956 199.388C205.124 196.22 206.899 191.921 206.889 187.441V9.86785C206.696 6.38945 204.781 3.23628 201.784 1.46003C198.787 -0.316219 195.102 -0.481825 191.958 1.01845L14.931 97.1144C5.71737 102.024 -0.027797 111.624 0.000101145 122.064V204.867C0.000101145 212.352 8.18677 205.646 14.6581 201.943L102.333 145.533C106.988 142.874 112.916 144.456 115.627 149.08C116.478 150.565 116.934 152.242 116.953 153.953V187.441C116.942 191.921 118.717 196.22 121.885 199.388C125.053 202.556 129.353 204.331 133.833 204.321H190.009Z" fill="#2CA760"/>
<path fill-rule="evenodd" clip-rule="evenodd" d="M17.0361 215.664C12.5528 215.643 8.24717 217.415 5.077 220.585C1.90683 223.755 0.135091 228.061 0.155944 232.544V410C0.366939 413.461 2.28073 416.591 5.26449 418.356C8.24826 420.122 11.9134 420.292 15.0479 418.811L192.114 322.715C201.203 317.701 206.892 308.184 207.006 297.804V236.755C207.006 215.274 197.767 218.276 191.178 222.136L104.711 274.452C100.045 277.114 94.1054 275.534 91.3789 270.905C90.5467 269.413 90.0917 267.74 90.0534 266.032V232.544C90.0638 228.064 88.2887 223.765 85.1208 220.597C81.9529 217.429 77.6533 215.654 73.1733 215.664H17.0361Z" fill="#0077FF"/>
</svg>

<svg xmlns="http://www.w3.org/2000/svg" width="208" height="420" fill="none"><path fill="#2CA760" fill-rule="evenodd" d="M190.009 204.321a16.842 16.842 0 0 0 16.88-16.88V9.868a10.447 10.447 0 0 0-14.931-8.85L14.931 97.114a28.185 28.185 0 0 0-14.93 24.95v82.803c0 7.485 8.186.779 14.657-2.924l87.675-56.41a9.785 9.785 0 0 1 13.294 3.547 10.022 10.022 0 0 1 1.326 4.873v33.488a16.837 16.837 0 0 0 16.88 16.88h56.176Z" clip-rule="evenodd"/><path fill="#07F" fill-rule="evenodd" d="M17.036 215.664a16.802 16.802 0 0 0-16.88 16.88V410a10.446 10.446 0 0 0 14.892 8.811l177.066-96.096a28.812 28.812 0 0 0 14.892-24.911v-61.049c0-21.481-9.239-18.479-15.828-14.619l-86.467 52.316a9.824 9.824 0 0 1-13.332-3.547 10.487 10.487 0 0 1-1.326-4.873v-33.488a16.84 16.84 0 0 0-16.88-16.88H17.036Z" clip-rule="evenodd"/></svg>
